X:1
T:Kontratanz
%%textfont Helvetica-Narrow 10pt
%%begintext align
B:"Wer tanzt nach meiner Pfeife", Sepp Pichler, Herausgeber Steirisches Volksliedwerk, Graz o.J.,
S:im buch mit der Angabe: "Alt-Wiener Kontrataenze", Herausgeber: W. Kolneder, aus d. Reihe"Salzburger Musikuecherei" Heft 12, Salzburg, 1948, dort in F
N:im buch in F, zweistimmig
N:in der quelle einstimmig
%%endtext 
F:http://simonwascher.info/
Z:abc transcription Simon Wascher
M:3/4
L:1/8
K:G
B2B2G2 | B2B2G2 | c2c2A2 | GFGAG2 |
B2B2G2 | B2B2G2 | c2c2A2 | G6 :|
|:\
D2E2F2 | G2A2B2 | c2c2A2 | GFGAG2 |
D2E2F2 | G2A2B2 | c2A2F2 | G6 :|
%%wordsfont Times-Italic 11pt
W:aus Simon Waschers TradArchiv
